X: 6
T: The Handsome Young Maidens
R: jig
M: 6/8
L: 1/8
K: Amaj
aed cdB | Ace aga | bee dee | bee dee | Bee bag |
aed cdB | Ace aga | bee dee |1 BAG A2g :|2 BAG A2 B |
|:c3 ABc | dfe f3 | efa fec | B2f fed |
c2A EAc | dfe f3 |1 efe fec | BAG A2B :|2 efe fef | gfg bag |


Tune 145	Setting 21704

